X: 31
T:Cameronian Reel, The
M:C|
L:1/8
R:Reel
K:D
B[|:A2FA DAFA|GFEF GBdB|A2FA DAFA|GBAG FDDB|!
A2FA DAFA|GFEF ~G3B|A2FA DAFA|GEAG FDDB:|!
|:Addc d3A|(3Bcd ef gfed|(3cBA eA fAed|cdef gfeg|!
faeg faeg|fddc defg|afge fdec|dBAG FDDB:|]!
